X:536
T:Maid at the Well, The
T:Castle Street Jig, The
T:Clonmore Jig, The
R:jig
H:Also played in G #380
D:Dervish: Midsummer's Night
Z:id:hn-jig-536
M:6/8
K:A
AFE ECE | AFA d2f | ecA ABc | BAF FEF |
AFE ECE | AFA d2f | ecA ABc |1 BAG A2B :|2 BAG Ace ||
aec Ace | aec d2f | ecA ABc | BAF FEF |
aec Ace | aec d2f | ecA ABc | BAG Ace |
aec Ace | aec d2f | ecA ABc | BAF FEF |
AFE ECE | AFA d2f | ecA ABc | BAG A2E ||

